!!!COM: Stadler, Maximilian
!!!CDT: 1748///-1833///
!!!COA: Haydn, Joseph
!!!OTL@@IT: Gioco filarmonico
!!!OTL@EN: Philharmonic Joke
!!!OTA@@IT: o sia maniera facile per comporre un infinito numero de minuetti e trio anche senza sapere il contrapunto
!!!OTA@EN: or the Art of Composing an Infinite Number of Minutes Without the Least Knowledge of Counterpoint
!!!PDT: 1781///
!!!PPR: Artaria
!!!SML: Gesellschaft der Musikfreundes, Vienna
!!!PPR2: Luigi Marescalchi
!!!PPP2: Napoli
!!!PDT2: 1790///
**kern	**kern	**kern
*Icello	*Ivioln	*Ivioln
*>[A,A,B,B,A]	*>[A,A,B,B,A]	*>[A,A,B,B,A]
*>norep[A,B]	*>norep[A,B]	*>norep[A,B]
*>A	*>A	*>A
*k[]	*k[]	*k[]
*M3/4	*M3/4	*M3/4
*MM120	*MM120	*MM120
!!section:  I
!!measure:  A
!!diceroll: 11
=3	=3	=3
4C	4e	4cc
8E	4e	4cc
8G	.	.
4c	4e	4cc
!!section:  I
!!measure:  B
!!diceroll: 7
=157	=157	=157
2F	2c	8a
.	.	8cc
.	.	8ff
.	.	8aa
4E	4c	4gg
!!section:  I
!!measure:  C
!!diceroll: 5
=113	=113	=113
4BB	4G	16dd
.	.	16ee
.	.	16ff
.	.	16dd
4C	4G	8ee
.	.	8gg
4r	4r	16ff
.	.	16ee
.	.	16dd
.	.	16cc
!!section:  I
!!measure:  D
!!diceroll: 7
=167	=167	=167
4E	4c	8gg
.	.	8g
4D	4B	8ff
.	.	8f
4C	4c	4e
!!section:  I
!!measure:  E
!!diceroll: 7
=154	=154	=154
4C	2G	8r
.	.	8ee
4BB	.	16ff
.	.	16ee
.	.	8dd
4AA	4e	16ee
.	.	16dd
.	.	8cc
!!section:  I
!!measure:  F
!!diceroll: 10
=129	=129	=129
4B	4g	8gg
.	.	8dd
4A	4f#	16ee
.	.	16dd
.	.	8cc
4G	4g	16dd
.	.	16cc
.	.	8b
!!section:  I
!!measure:  G
!!diceroll: 12
=106	=106	=106
4C	4g	16gg
.	.	16ee
.	.	16dd
.	.	16cc
4D	2f#	4b
4D	.	4a
!!section:  I
!!measure:  H
!!diceroll: 7
=91	=91	=91
8GG	2.g	2.g
8G	.	.
8D	.	.
8BB	.	.
4GG	.	.
*>B	*>B	*>B
!!section:  II
!!measure:  A
!!diceroll: 7
=138	=138	=138
4r	4r	8g
.	.	8gg
4G	4B-	8ff
.	.	8ee
4G	4B-	8dd
.	.	8cc#
!!section:  II
!!measure:  B
!!diceroll: 7
=71	=71	=71
8F	4dd	8aa
8F	.	8a
8E	4cc#	8gg
8E	.	8a
8D	4dd	4ff
8D	.	.
!!section:  II
!!measure:  C
!!diceroll: 7
=150	=150	=150
4r	4r	8f
.	.	8ff
4F	4G#	8ee
.	.	8dd
4F	4G#	8cc
.	.	8b
!!section:  II
!!measure:  D
!!diceroll: 8
=175	=175	=175
4r	4r	16dd
.	.	16cc
.	.	16b
.	.	16cc
4C	12e	2g
.	12g	.
.	12cc	.
4C	12e	.
.	12g	.
.	12cc	.
!!section:  II
!!measure:  E
!!diceroll: 10
=137	=137	=137
2.F	4r	8r
.	.	8a
.	4A	8cc#
.	.	8dd
.	4d	8ff
.	.	8aa
!!section:  II
!!measure:  F
!!diceroll: 5
=160	=160	=160
4r	4r	12f
.	.	12ff
.	.	12dd
4G	4d	12b
.	.	12dd
.	.	12f
4A	4c	4e
!!section:  II
!!measure:  G
!!diceroll: 9
=72	=72	=72
4F	8b	8dd
.	8ff	8aa
4G	8ee	8gg
.	8dd	8ff
4GG	8cc	8ee
.	8b	8dd
!!section:  II
!!measure:  H
!!diceroll: 8
=172	=172	=172
4C	2.cc	2.cc
8.GG	.	.
16EE	.	.
4CC	.	.
*-	*-	*-
!!!END: 2004/11/01/
